icons/intravenous_bag_fill.svg

<svg width="48" height="48" viewBox="0 0 48 48" fill="none" xmlns="http://www.w3.org/2000/svg">
<path d="M24 12C25.1046 12 26 11.1046 26 10C26 8.89543 25.1046 8 24 8C22.8954 8 22 8.89543 22 10C22 11.1046 22.8954 12 24 12Z" fill="black"/>
<path fill-rule="evenodd" clip-rule="evenodd" d="M33.9824 38.0479L32.9912 38.0479V40.0479H28.9824V44.0479H26.9824V40.0479H22.9907C22.9652 41.1304 22.0798 42 20.9912 42H18.9912C17.9026 42 17.0172 41.1304 16.9918 40.0479H14.9912V38.0479L13.9824 38.0479C11.7733 38.0479 9.98242 36.257 9.98242 34.0479V10.1622C9.98242 7.95304 11.7733 6.16218 13.9824 6.16218H19.9824L21.1144 4.99782C22.6851 3.38224 25.2797 3.38224 26.8504 4.99782L27.9824 6.16218H33.9824C36.1916 6.16218 37.9824 7.95304 37.9824 10.1622V34.0479C37.9824 36.257 36.1916 38.0479 33.9824 38.0479ZM26.5484 7.55634C26.925 7.94366 27.4422 8.16218 27.9824 8.16218H33.9824C35.087 8.16218 35.9824 9.05761 35.9824 10.1622V11.5H31.9912V13.5H35.9824V16.5H31.9912V18.5H35.9824V21.5H31.9912V23.5H35.9824V28.1001C34.5733 26.6386 31.7589 24.7291 27.9912 27.17C24.0137 29.7468 20.373 29.5953 16.1832 29.4208C14.8483 29.3652 13.4575 29.3073 11.9824 29.3346V10.1622C11.9824 9.05761 12.8779 8.16218 13.9824 8.16218H19.9824C20.5226 8.16218 21.0399 7.94366 21.4164 7.55634L22.5484 6.39198C23.3338 5.58418 24.6311 5.58419 25.4164 6.39198L26.5484 7.55634Z" fill="black"/>
</svg>

<svg
  xmlns="http://www.w3.org/2000/svg"
  width="24"
  height="24"
  viewBox="0 0 24 24"
  fill="none"
  stroke="currentColor"
  stroke-width="2"
  stroke-linecap="round"
  stroke-linejoin="round"
>
  <path d="M24 12a2 2 0 1 0 0-4 2 2 0 0 0 0 4" />
  <path
    fill-rule="evenodd"
    d="M33.982 38.048h-.99v2h-4.01v4h-2v-4h-3.991a2 2 0 0 1-2 1.952h-2a2 2 0 0 1-2-1.952h-2v-2h-1.009a4 4 0 0 1-4-4V10.162a4 4 0 0 1 4-4h6l1.132-1.164a4 4 0 0 1 5.736 0l1.132 1.164h6a4 4 0 0 1 4 4v23.886a4 4 0 0 1-4 4M26.548 7.556a2 2 0 0 0 1.434.606h6a2 2 0 0 1 2 2V11.5h-3.99v2h3.99v3h-3.99v2h3.99v3h-3.99v2h3.99v4.6c-1.409-1.461-4.223-3.37-7.99-.93-3.978 2.577-7.619 2.425-11.809 2.25-1.335-.055-2.726-.113-4.2-.085V10.162a2 2 0 0 1 2-2h6a2 2 0 0 0 1.433-.606l1.132-1.164a2 2 0 0 1 2.868 0z"
    clip-rule="evenodd"
  />
</svg>
